optimized/24/outline/light-bulb.svg

<svg xmlns="http://www.w3.org/2000/svg" fill="none" viewBox="0 0 24 24">
  <path stroke-linecap="round" stroke-linejoin="round" d="M12 18V12.75M12 12.75C12.5179 12.75 13.0206 12.6844 13.5 12.561M12 12.75C11.4821 12.75 10.9794 12.6844 10.5 12.561M14.25 20.0394C13.5212 20.1777 12.769 20.25 12 20.25C11.231 20.25 10.4788 20.1777 9.75 20.0394M13.5 22.422C13.007 22.4736 12.5066 22.5 12 22.5C11.4934 22.5 10.993 22.4736 10.5 22.422M14.25 18V17.8083C14.25 16.8254 14.9083 15.985 15.7585 15.4917C17.9955 14.1938 19.5 11.7726 19.5 9C19.5 4.85786 16.1421 1.5 12 1.5C7.85786 1.5 4.5 4.85786 4.5 9C4.5 11.7726 6.00446 14.1938 8.24155 15.4917C9.09173 15.985 9.75 16.8254 9.75 17.8083V18"/>
</svg>

<svg xmlns="http://www.w3.org/2000/svg" fill="none" viewBox="0 0 24 24" stroke-width="1.5" stroke="currentColor" aria-hidden="true">
  <path stroke-linecap="round" stroke-linejoin="round" d="M12 18v-5.25m0 0a6.01 6.01 0 001.5-.189m-1.5.189a6.01 6.01 0 01-1.5-.189m3.75 7.478a12.06 12.06 0 01-4.5 0m3.75 2.383a14.406 14.406 0 01-3 0M14.25 18v-.192c0-.983.658-1.823 1.508-2.316a7.5 7.5 0 10-7.517 0c.85.493 1.509 1.333 1.509 2.316V18"/>
</svg>
